packages/lexical-website/static/img/github-mark-light.svg

<svg width="162" height="158" viewBox="0 0 162 158" fill="none" xmlns="http://www.w3.org/2000/svg">
<path fill-rule="evenodd" clip-rule="evenodd" d="M80.5186 0.408226C36.0568 0.684988 0.227222 36.9554 0.504034 81.4252C0.725464 116.998 23.9836 147.035 56.0412 157.482C60.0698 158.203 61.5316 155.701 61.5183 153.575C61.5064 151.656 61.3922 145.313 61.3157 138.585C38.9464 143.595 34.1304 129.254 34.1304 129.254C30.4099 119.972 25.1172 117.529 25.1172 117.529C17.7809 112.577 25.6374 112.631 25.6374 112.631C33.7261 113.148 38.0315 120.852 38.0315 120.852C45.2893 133.115 56.9216 129.484 61.5034 127.398C62.195 122.191 64.2582 118.625 66.5483 116.6C48.6519 114.677 29.8093 107.889 29.6173 77.0372C29.5626 68.2481 32.6631 61.0446 37.7786 55.374C36.93 53.3512 34.1231 45.1792 38.4273 34.0615C38.4273 34.0615 45.175 31.8568 60.6249 42.1782C67.0363 40.3543 73.9186 39.4167 80.761 39.3421C87.6037 39.3315 94.5025 40.1833 100.948 41.9272C116.251 31.4144 123.016 33.535 123.016 33.535C127.468 44.5982 124.763 52.8045 123.94 54.8377C129.137 60.4441 132.305 67.6085 132.359 76.3977C132.552 107.324 113.759 114.249 95.842 116.354C98.7455 118.834 101.349 123.718 101.396 131.23C101.463 142.003 101.425 150.674 101.442 153.326C101.455 155.47 102.918 157.971 106.995 157.156C138.904 146.298 161.757 115.985 161.536 80.4228C161.259 35.953 124.986 0.13143 80.5186 0.408226Z" fill="#1B1817"/>
</svg>

<svg width="162" height="158" fill="none" xmlns="http://www.w3.org/2000/svg"><path fill-rule="evenodd" clip-rule="evenodd" d="M80.519.408C36.057.685.227 36.955.504 81.425c.221 35.573 23.48 65.61 55.537 76.057 4.029.721 5.49-1.781 5.477-3.907-.012-1.919-.126-8.262-.202-14.99-22.37 5.01-27.186-9.331-27.186-9.331-3.72-9.282-9.013-11.725-9.013-11.725-7.336-4.952.52-4.898.52-4.898 8.09.517 12.395 8.221 12.395 8.221 7.257 12.263 18.89 8.632 23.471 6.546.692-5.207 2.755-8.773 5.045-10.798-17.896-1.923-36.739-8.711-36.93-39.563-.055-8.789 3.045-15.992 8.16-21.663-.848-2.023-3.655-10.195.65-21.313 0 0 6.747-2.204 22.197 8.117 6.411-1.824 13.294-2.761 20.136-2.836 6.843-.01 13.742.841 20.187 2.585 15.303-10.513 22.068-8.392 22.068-8.392 4.452 11.063 1.747 19.27.924 21.303 5.197 5.606 8.365 12.77 8.419 21.56.193 30.926-18.6 37.851-36.517 39.956 2.904 2.48 5.507 7.364 5.554 14.876.067 10.773.029 19.444.046 22.096.013 2.144 1.476 4.645 5.553 3.83 31.909-10.858 54.762-41.171 54.541-76.733C161.259 35.953 124.986.13 80.519.408Z" fill="#1B1817"/></svg>
